X: 167
T:the Road to Berwick
B:William Marshall A Collection Of Strathspey Reels (1781)
C:William Marshall
L:1/8
M:C|
O:Scotland
R:Reel?
Z:Clark Bernst + Richard Robinson
%%Page:3 - 3
F:http://richardrobinson.tunebook.org.uk/tune/4010
%%TBL:{"version":1,"type":"tune","id":"4010"}
K:D
%%staves {1 2}
V:1
F<DAF BGAF | DAdf e2 E2 | F<DAF BGAF | Adce d2 D2 :: 
(f/g/a) (fd) bgag | (f/g/a) (fd) b2 (eg) |1 (f/g/a) (fd) bgag | fdec d2 D2 :|2\
 fdge afbg |fdec d2 D2 |]
V:2 middle=d clef=bass
L:1/4
dddd | ffee | dddd | aAdd :: \
dddd | ddee |1 dddd | aAdd :|2 defg | aAdd |]

